favicon.svg

<svg width="32" height="32" viewBox="0 0 32 32" fill="none" xmlns="http://www.w3.org/2000/svg">
<rect width="32" height="32" rx="4" fill="url(#paint0_linear_544_119)"/>
<path d="M7.78947 4.45142H24.2105C26.1581 4.45142 27.5486 5.68508 27.5486 7V25C27.5486 26.3149 26.1581 27.5486 24.2105 27.5486H7.78947C5.84191 27.5486 4.45142 26.3149 4.45142 25V7C4.45142 5.68507 5.84191 4.45142 7.78947 4.45142Z" stroke="white" stroke-width="0.902836"/>
<path d="M17.8947 22.5L17.5789 24L18.8421 23.5L20.4211 25L22.6316 24L21.3684 22.5L22.6316 22L20.4211 21.5L18.2105 21L17.8947 22.5Z" stroke="white" stroke-width="0.451418"/>
<path d="M16.6353 14.5693H13.5045V19.5H10.6957V6.70312H16.3799C18.2451 6.70312 19.6846 7.03418 20.6986 7.69629C21.7126 8.3584 22.2196 9.3164 22.2196 10.5703C22.2196 11.4258 21.9568 12.1435 21.4313 12.7236C20.9132 13.2978 20.1879 13.7402 19.2553 14.0508L22.8857 19.3857V19.5H19.8771L16.6353 14.5693ZM13.5045 12.7851H16.391C17.3384 12.7851 18.0785 12.5976 18.6114 12.2226C19.1443 11.8418 19.4108 11.3232 19.4108 10.667C19.4108 9.98145 19.1628 9.45115 18.667 9.07615C18.1784 8.70115 17.4457 8.5078 16.4687 8.4961H13.5045V12.7851Z" fill="white"/>
<defs>
<linearGradient id="paint0_linear_544_119" x1="3" y1="4.00001" x2="25.5" y2="29" gradientUnits="userSpaceOnUse">
<stop stop-color="#345EC2"/>
<stop offset="1" stop-color="#264FB2"/>
</linearGradient>
</defs>
</svg>

<svg width="32" height="32" fill="none" xmlns="http://www.w3.org/2000/svg"><rect width="32" height="32" rx="4" fill="url(#a)"/><path d="M7.79 4.451h16.42c1.948 0 3.339 1.234 3.339 2.549v18c0 1.315-1.39 2.549-3.338 2.549H7.788c-1.947 0-3.338-1.234-3.338-2.549V7c0-1.315 1.39-2.549 3.338-2.549Z" stroke="#fff" stroke-width=".903"/><path d="m17.895 22.5-.316 1.5 1.263-.5 1.58 1.5 2.21-1-1.264-1.5 1.264-.5-2.21-.5-2.212-.5-.315 1.5Z" stroke="#fff" stroke-width=".451"/><path d="M16.635 14.57h-3.13v4.93h-2.81V6.703h5.685c1.865 0 3.305.331 4.319.993 1.014.662 1.52 1.62 1.52 2.874 0 .856-.262 1.573-.788 2.154-.518.574-1.243 1.016-2.176 1.327l3.63 5.335v.114h-3.008l-3.242-4.93Zm-3.13-1.785h2.886c.947 0 1.688-.187 2.22-.562.533-.381.8-.9.8-1.556 0-.686-.248-1.216-.744-1.59-.489-.376-1.221-.57-2.198-.58h-2.965v4.288Z" fill="#fff"/><defs><linearGradient id="a" x1="3" y1="4" x2="25.5" y2="29" gradientUnits="userSpaceOnUse"><stop stop-color="#345EC2"/><stop offset="1" stop-color="#264FB2"/></linearGradient></defs></svg>
